X: 22534
T: Lady Hamilton Of Dalrymple
R: strathspey
M: 4/4
K: Gminor
|:B<G G>F D<G G>B|A>F c>F d>Fc>F|B<G G>F D<G G>A|B>A B>c d<gg>a|
b>ga>^f g>d=f>c|d<B f>B A<F A<c|B<G G>F D<G G>A|B/A/B/c/ d/c/B/A/ B<G G2:|
|:d<g g2 d>gB>g|c<f f2 c>f A>f|d<g g>^f d>^fg>a|b/a/g/ a/g/^f/ d<g g2|
a<bg<a ^f<gd<=f|d<ec<d G/^F<AD2|B<G G>F D<G G>A|B/A/B/c/ d/c/B/A/ B<G G2:|

